public/img/Logo.svg

<svg width="60" height="60" viewBox="0 0 60 60" fill="none" xmlns="http://www.w3.org/2000/svg">
<path d="M29.8583 60.0019C46.3486 60.0019 59.7167 46.57 59.7167 30.0009C59.7167 13.4319 46.3486 0 29.8583 0C13.368 0 0 13.4319 0 30.0009C0 46.57 13.368 60.0019 29.8583 60.0019Z" fill="white"/>
<path d="M55.8309 19.3443C52.9963 12.3612 47.6344 6.90892 40.7357 3.99404C37.2598 2.52421 33.6075 1.77881 29.8792 1.77881C26.1509 1.77881 22.6712 2.48799 19.256 3.88728C12.308 6.73544 6.88162 12.1229 3.9806 19.0565C-2.01877 33.3907 4.70538 49.9592 18.9714 55.9872C22.4341 57.4513 26.0826 58.1929 29.8166 58.1929C41.1664 58.1929 51.3361 51.4137 55.7285 40.9228C58.6295 33.9893 58.6674 26.3256 55.8328 19.3424L55.8309 19.3443ZM7.26109 38.8925C7.77906 38.8925 8.30273 38.8792 8.8169 38.8544C16.7667 38.4846 24.2346 40.858 31.0119 45.91C33.0724 47.4465 34.4688 49.1737 35.279 51.1926C35.7477 52.3593 35.7325 53.4669 35.2373 54.3153L35.1253 54.5078L34.9071 54.5536C33.2299 54.9043 31.5166 55.0835 29.8166 55.0835C26.5019 55.0835 23.2575 54.422 20.1743 53.12C14.1788 50.5864 9.30262 45.6545 6.79814 39.5922L6.50975 38.8944H7.26109V38.8925ZM10.9438 30.4643C9.76178 29.3758 8.66132 28.0432 7.75819 26.6134C6.82091 25.1264 6.30673 23.5651 6.23084 21.9675L6.22704 21.8703L6.2593 21.7788C6.43765 21.2641 6.63118 20.7532 6.83609 20.2632C9.27416 14.4392 13.767 9.7933 19.4894 7.17772L20.1288 6.88604L20.1971 7.5895C20.4817 10.5101 22.1077 13.2382 25.1662 15.9319C28.3215 18.7095 32.2679 20.9266 37.2333 22.7091C41.8115 24.3543 45.777 26.7145 49.0176 29.7285C51.8522 32.3631 53.3378 35.1922 53.4365 38.1357L53.4403 38.231L53.408 38.3206C53.2392 38.801 53.0589 39.2719 52.873 39.7199C50.4349 45.5458 45.9363 50.1955 40.2102 52.8092L39.567 53.1028L39.5006 52.3974C39.1021 48.15 35.8881 45.1226 33.5069 43.2143C30.4617 40.776 26.8681 38.843 22.5232 37.3007C18.0323 35.7069 14.137 33.4078 10.9457 30.4682L10.9438 30.4643ZM50.359 21.1783C50.1162 21.1821 49.8733 21.1859 49.6304 21.1859C41.3296 21.1859 33.9186 18.4636 27.6005 13.0952C26.4906 12.1515 25.4527 10.7427 24.5135 8.90873C23.8969 7.70198 23.8817 6.5448 24.4718 5.64498L24.5856 5.4715L24.7887 5.42956C29.754 4.38866 34.8521 4.88242 39.5347 6.86126C45.5664 9.41011 50.4558 14.3763 52.9489 20.4844L53.2411 21.1974L52.4745 21.1821C52.1197 21.1745 51.7573 21.1707 51.3874 21.1707C51.0496 21.1707 50.7062 21.1745 50.3609 21.1802L50.359 21.1783Z" fill="black"/>
</svg>

<svg xmlns="http://www.w3.org/2000/svg" width="60" height="60" fill="none"><path fill="#fff" d="M29.858 60.002c16.49 0 29.859-13.432 29.859-30.001S46.349 0 29.858 0C13.368 0 0 13.432 0 30c0 16.57 13.368 30.002 29.858 30.002"/><path fill="#000" d="M55.83 19.344c-2.834-6.983-8.196-12.435-15.094-15.35a27.7 27.7 0 0 0-10.857-2.215c-3.728 0-7.208.709-10.623 2.108-6.948 2.848-12.374 8.236-15.275 15.17-6 14.334.724 30.902 14.99 36.93a27.7 27.7 0 0 0 10.846 2.206c11.35 0 21.52-6.78 25.911-17.27 2.901-6.934 2.94-14.597.105-21.58zM7.262 38.892c.518 0 1.042-.013 1.556-.038 7.95-.37 15.418 2.004 22.195 7.056 2.06 1.537 3.457 3.264 4.267 5.283.469 1.166.453 2.274-.042 3.122l-.112.193-.218.046a24.662 24.662 0 0 1-14.733-1.434C14.18 50.586 9.303 45.654 6.798 39.592l-.288-.698h.751zm3.683-8.428a19.3 19.3 0 0 1-3.186-3.85c-.937-1.488-1.451-3.049-1.527-4.646l-.004-.098.032-.091c.179-.515.372-1.026.577-1.516A24.92 24.92 0 0 1 19.49 7.178l.64-.292.068.704c.285 2.92 1.91 5.648 4.97 8.342 3.154 2.777 7.1 4.995 12.066 6.777 4.579 1.645 8.544 4.006 11.785 7.02 2.834 2.634 4.32 5.463 4.419 8.407l.003.095-.032.09A24.914 24.914 0 0 1 40.21 52.81l-.643.293-.066-.706c-.399-4.247-3.613-7.274-5.994-9.183-3.045-2.438-6.639-4.371-10.984-5.913-4.49-1.594-8.386-3.893-11.577-6.833zm39.415-9.286q-.364.007-.729.008c-8.3 0-15.711-2.722-22.03-8.09-1.11-.944-2.147-2.353-3.087-4.187-.616-1.207-.631-2.364-.041-3.264l.114-.173.203-.042A24.7 24.7 0 0 1 39.535 6.86c6.031 2.55 10.92 7.515 13.414 13.623l.292.713-.767-.015a51 51 0 0 0-2.113-.002z"/></svg>
